nft-studio/src/assets/images/logoCentrifugeFull.svg

<svg width="108" height="32" viewBox="0 0 108 32" fill="none" xmlns="http://www.w3.org/2000/svg">
<mask id="mask0_3481_89193" style="mask-type:alpha" maskUnits="userSpaceOnUse" x="0" y="0" width="33" height="27">
<path fill-rule="evenodd" clip-rule="evenodd" d="M0 0H32.8447V26.4594H0V0Z" fill="white"/>
</mask>
<g mask="url(#mask0_3481_89193)">
<path fill-rule="evenodd" clip-rule="evenodd" d="M3.84589 25.4767C2.86988 23.3873 2.32471 21.0562 2.32471 18.5978C2.32471 9.61041 9.61041 2.32475 18.5978 2.32475C23.6021 2.32475 28.0787 4.58379 31.0638 8.13756L32.8447 6.64327C29.4331 2.58177 24.317 0 18.5978 0C8.32652 0 0 8.32652 0 18.5978C0 21.4074 0.623024 24.0715 1.73848 26.4594L3.84589 25.4767Z" fill="black"/>
</g>
<path fill-rule="evenodd" clip-rule="evenodd" d="M18.5978 29.6401C12.4992 29.6401 7.55534 24.6962 7.55534 18.5976C7.55534 12.4991 12.4992 7.55518 18.5978 7.55518C21.9935 7.55518 25.0308 9.08851 27.0564 11.5L28.8377 10.0053C26.3856 7.08613 22.7084 5.23047 18.5978 5.23047C11.2153 5.23047 5.23059 11.2151 5.23059 18.5976C5.23059 25.9801 11.2153 31.9648 18.5978 31.9648V29.6401Z" fill="black"/>
<path fill-rule="evenodd" clip-rule="evenodd" d="M22.6045 21.96C21.645 23.1022 20.2063 23.8285 18.5978 23.8285C15.709 23.8285 13.3671 21.4867 13.3671 18.5979C13.3671 15.7091 15.709 13.3673 18.5978 13.3673C20.2063 13.3673 21.645 14.0936 22.6045 15.2359L24.6079 13.5549C23.1686 11.8414 21.0106 10.752 18.5978 10.752C14.2646 10.752 10.7518 14.2647 10.7518 18.5979C10.7518 22.9311 14.2646 26.4439 18.5978 26.4439C20.809 26.4439 22.8058 25.5284 24.2319 24.0567L22.6045 21.96Z" fill="black"/>
<path fill-rule="evenodd" clip-rule="evenodd" d="M36.7472 16.0519H39.1374V17.6663H39.1793C39.4028 17.1631 39.7906 16.7195 40.3429 16.3349C40.8949 15.9507 41.5485 15.7583 42.3033 15.7583C42.9602 15.7583 43.5226 15.8736 43.9911 16.1043C44.4594 16.3349 44.8436 16.639 45.1443 17.0163C45.4447 17.3938 45.6649 17.8272 45.8047 18.3163C45.9443 18.8057 46.0144 19.3089 46.0144 19.8259V26.1159H43.4984V20.5388C43.4984 20.2452 43.4775 19.9379 43.4355 19.6162C43.3936 19.2949 43.3026 19.0049 43.163 18.7462C43.0231 18.4877 42.8307 18.2743 42.5863 18.1067C42.3416 17.9389 42.0166 17.855 41.6114 17.855C41.2059 17.855 40.8566 17.9357 40.5632 18.0962C40.2696 18.257 40.0284 18.463 39.8398 18.7147C39.651 18.9662 39.5076 19.2566 39.4099 19.5847C39.312 19.9134 39.2632 20.2452 39.2632 20.5807V26.1159H36.7472V16.0519Z" fill="black"/>
<path fill-rule="evenodd" clip-rule="evenodd" d="M47.0834 18.0645V16.0517H48.8446V13.1372H51.3187V16.0517H53.8347V18.0645H51.3187V22.74C51.3187 23.1875 51.399 23.5577 51.5598 23.8513C51.7203 24.1448 52.0803 24.2916 52.6396 24.2916C52.8074 24.2916 52.9888 24.2742 53.1847 24.2392C53.3803 24.2044 53.5549 24.152 53.709 24.0819L53.7927 26.0527C53.569 26.1366 53.3033 26.2028 52.9961 26.252C52.6884 26.3008 52.3949 26.3254 52.1154 26.3254C51.4445 26.3254 50.8994 26.231 50.4801 26.0423C50.0607 25.8535 49.7285 25.5951 49.4841 25.2665C49.2394 24.9383 49.0717 24.5608 48.9809 24.1343C48.8898 23.7081 48.8446 23.2504 48.8446 22.761V18.0645H47.0834Z" fill="black"/>
<path fill-rule="evenodd" clip-rule="evenodd" d="M55.3446 16.0519H57.7557V17.7292H57.7977C58.0771 17.1421 58.4686 16.6672 58.9718 16.3034C59.475 15.9402 60.062 15.7583 60.733 15.7583C60.8306 15.7583 60.9354 15.7619 61.0476 15.7688C61.1592 15.776 61.2571 15.7934 61.341 15.8212V18.1277C61.1732 18.0857 61.0298 18.0579 60.9112 18.0438C60.7923 18.0299 60.6769 18.0228 60.5652 18.0228C59.992 18.0228 59.5306 18.1277 59.1815 18.3372C58.8319 18.5469 58.5594 18.7985 58.3638 19.0921C58.1678 19.3857 58.0352 19.6864 57.9654 19.9937C57.8953 20.3012 57.8606 20.5459 57.8606 20.7274V26.1159H55.3446V16.0519Z" fill="black"/>
<path fill-rule="evenodd" clip-rule="evenodd" d="M62.4939 26.1157H65.0099V16.0517H62.4939V26.1157ZM62.1374 12.6341C62.1374 12.2289 62.2874 11.876 62.5881 11.5753C62.8886 11.2748 63.2695 11.1245 63.7309 11.1245C64.1921 11.1245 64.58 11.2679 64.8945 11.5543C65.209 11.8409 65.3663 12.201 65.3663 12.6341C65.3663 13.0674 65.209 13.4276 64.8945 13.7138C64.58 14.0005 64.1921 14.1437 63.7309 14.1437C63.2695 14.1437 62.8886 13.9937 62.5881 13.6928C62.2874 13.3925 62.1374 13.0396 62.1374 12.6341Z" fill="black"/>
<path fill-rule="evenodd" clip-rule="evenodd" d="M68.2601 18.0648H66.3522V16.052H68.2601V15.2993C68.2601 14.6985 68.3263 14.1219 68.4594 13.5696C68.5921 13.0176 68.8158 12.5317 69.1303 12.1123C69.4447 11.6931 69.8605 11.3612 70.3778 11.1165C70.8947 10.8721 71.5447 10.7495 72.3277 10.7495C72.6071 10.7495 72.8414 10.76 73.0301 10.781C73.2187 10.8019 73.4107 10.8406 73.6067 10.8963L73.4389 13.0349C73.299 12.993 73.1487 12.9583 72.9882 12.9301C72.8273 12.9022 72.6559 12.8882 72.4744 12.8882C72.1108 12.8882 71.8173 12.9583 71.5939 13.0979C71.3701 13.2377 71.1988 13.4195 71.0802 13.643C70.9613 13.8667 70.881 14.1115 70.8391 14.3768C70.7971 14.6425 70.7761 14.901 70.7761 15.1525V16.052H73.1034V18.0648H70.7761V26.116H68.2601V18.0648Z" fill="black"/>
<path fill-rule="evenodd" clip-rule="evenodd" d="M83.6291 26.1158H81.2389V24.5014H81.1969C80.9732 25.0046 80.5853 25.4485 80.0333 25.8327C79.481 26.217 78.8277 26.4094 78.0729 26.4094C77.4157 26.4094 76.8532 26.2941 76.3851 26.0633C75.9166 25.8327 75.5323 25.5287 75.2319 25.1514C74.9312 24.7739 74.711 24.3409 74.5714 23.8514C74.4316 23.3622 74.3618 22.8591 74.3618 22.3418V16.0518H76.8778V21.6289C76.8778 21.9225 76.8988 22.2301 76.9407 22.5515C76.9827 22.8732 77.0734 23.1631 77.2132 23.4215C77.3528 23.6804 77.5451 23.8933 77.7898 24.061C78.0342 24.2288 78.3593 24.3127 78.7648 24.3127C79.1559 24.3127 79.5019 24.2324 79.8026 24.0715C80.1031 23.911 80.3478 23.7047 80.5365 23.453C80.7252 23.2014 80.8684 22.9115 80.9663 22.5829C81.064 22.2546 81.1131 21.9225 81.1131 21.5869V16.0518H83.6291V26.1158Z" fill="black"/>
<path fill-rule="evenodd" clip-rule="evenodd" d="M28.3514 18.3267C28.8756 17.8728 29.515 17.6453 30.2698 17.6453C30.6752 17.6453 31.0279 17.7118 31.3288 17.8445C31.6291 17.9776 31.8771 18.1557 32.0729 18.3791C32.2686 18.603 32.4117 18.8614 32.5029 19.155C32.5936 19.4484 32.6392 19.7561 32.6392 20.0774H27.4814C27.537 19.3647 27.8273 18.7811 28.3514 18.3267ZM33.0165 23.0548C32.7368 23.4603 32.3803 23.7782 31.9473 24.0087C31.5138 24.2394 30.9827 24.3547 30.3537 24.3547C29.9901 24.3547 29.6408 24.2918 29.3054 24.166C28.9699 24.0402 28.6692 23.8691 28.4038 23.6523C28.1382 23.4358 27.9248 23.1772 27.7643 22.8765C27.6036 22.5761 27.5092 22.2443 27.4814 21.8807H35.1342C35.1479 21.769 35.1552 21.6572 35.1552 21.5452V21.2097C35.1552 20.3012 35.0326 19.5081 34.7882 18.8299C34.5435 18.1521 34.2044 17.586 33.7713 17.1317C33.3379 16.6776 32.8242 16.3349 32.2302 16.1043C31.636 15.8736 30.9896 15.7583 30.2908 15.7583C29.536 15.7583 28.8336 15.8878 28.1838 16.1463C27.5338 16.405 26.9709 16.7684 26.4958 17.2365C26.0205 17.705 25.6467 18.2711 25.3742 18.9348C25.1015 19.5988 24.9653 20.3363 24.9653 21.1468C24.9653 21.9717 25.1015 22.7088 25.3742 23.3587C25.6467 24.0087 26.0241 24.5574 26.5063 25.0047C26.9885 25.4522 27.558 25.7981 28.2151 26.0425C28.8721 26.2869 29.5918 26.4095 30.3747 26.4095C32.0643 26.4095 33.3949 25.8711 34.3674 24.7953L33.0165 23.0548Z" fill="black"/>
<path fill-rule="evenodd" clip-rule="evenodd" d="M100.868 18.3267C101.392 17.8728 102.031 17.6453 102.786 17.6453C103.191 17.6453 103.544 17.7118 103.845 17.8445C104.145 17.9776 104.393 18.1557 104.589 18.3791C104.785 18.603 104.928 18.8614 105.019 19.155C105.11 19.4484 105.155 19.7561 105.155 20.0774H99.9976C100.053 19.3647 100.343 18.7811 100.868 18.3267ZM105.533 23.0548C105.253 23.4603 104.897 23.7782 104.464 24.0087C104.03 24.2394 103.499 24.3547 102.87 24.3547C102.506 24.3547 102.157 24.2918 101.822 24.166C101.486 24.0402 101.185 23.8691 100.92 23.6523C100.654 23.4358 100.441 23.1772 100.281 22.8765C100.12 22.5761 100.025 22.2443 99.9976 21.8807H107.65C107.664 21.769 107.671 21.6572 107.671 21.5452V21.2097C107.671 20.3012 107.549 19.5081 107.304 18.8299C107.06 18.1521 106.721 17.586 106.288 17.1317C105.854 16.6776 105.34 16.3349 104.746 16.1043C104.152 15.8736 103.506 15.7583 102.807 15.7583C102.052 15.7583 101.35 15.8878 100.7 16.1463C100.05 16.405 99.4872 16.7684 99.0121 17.2365C98.5367 17.705 98.1629 18.2711 97.8904 18.9348C97.6177 19.5988 97.4816 20.3363 97.4816 21.1468C97.4816 21.9717 97.6177 22.7088 97.8904 23.3587C98.1629 24.0087 98.5404 24.5574 99.0225 25.0047C99.5047 25.4522 100.074 25.7981 100.731 26.0425C101.388 26.2869 102.108 26.4095 102.891 26.4095C104.581 26.4095 105.911 25.8711 106.884 24.7953L105.533 23.0548Z" fill="black"/>
<path fill-rule="evenodd" clip-rule="evenodd" d="M93.335 22.2122C93.1951 22.5954 92.9958 22.9332 92.7375 23.2258C92.4786 23.5183 92.1642 23.7516 91.7939 23.9258C91.4235 24.1002 91.0076 24.187 90.5464 24.187C90.0989 24.187 89.6972 24.0966 89.3408 23.9153C88.9843 23.7342 88.6836 23.4938 88.4392 23.1943C88.1946 22.8949 88.0058 22.5568 87.8731 22.1807C87.7402 21.8046 87.674 21.4148 87.674 21.0105C87.674 20.565 87.7402 20.1469 87.8731 19.7568C88.0058 19.3665 88.1946 19.0288 88.4392 18.7432C88.6836 18.4574 88.9843 18.2311 89.3408 18.064C89.6972 17.8969 90.1061 17.8131 90.5674 17.8131C91.0286 17.8131 91.4408 17.8969 91.8044 18.064C92.1678 18.2311 92.4786 18.4611 92.7375 18.7536C92.9958 19.0462 93.1951 19.3875 93.335 19.7773C93.4746 20.1675 93.5446 20.5787 93.5446 21.0105C93.5446 21.4285 93.4746 21.8293 93.335 22.2122ZM93.5446 16.0519V17.5614H93.5027C93.139 16.9465 92.65 16.4921 92.0351 16.1987C91.4198 15.9051 90.7561 15.7583 90.0432 15.7583C89.2884 15.7583 88.607 15.8982 87.9989 16.1777C87.3909 16.4574 86.8737 16.8348 86.4473 17.3099C86.0208 17.7852 85.6927 18.3444 85.462 18.9872C85.2313 19.6303 85.1161 20.3153 85.1161 21.042C85.1161 21.7548 85.2347 22.4294 85.4725 23.0653C85.71 23.7015 86.0418 24.2571 86.4683 24.7321C86.8946 25.2074 87.4151 25.5849 88.0304 25.8643C88.6453 26.1437 89.3303 26.2837 90.0852 26.2837C90.784 26.2837 91.4166 26.153 91.9827 25.8918C92.5488 25.6307 93.0133 25.253 93.377 24.7587H93.4189V25.4951C93.4189 26.0003 93.3665 26.4632 93.2616 26.8841C93.1568 27.3048 92.9818 27.6697 92.7375 27.9783C92.4927 28.2869 92.1642 28.5287 91.752 28.7043C91.3396 28.8795 90.8328 28.9674 90.232 28.9674C89.603 28.9674 88.9809 28.8448 88.3659 28.6004C87.7668 28.3622 87.2278 28.0211 86.7484 27.5775L85.2627 29.4916C85.5842 29.757 85.9476 29.9947 86.3531 30.2045C86.7583 30.4141 87.1812 30.5887 87.6216 30.7286C88.0619 30.8682 88.509 30.973 88.9635 31.043C89.4175 31.1128 89.8473 31.1479 90.2529 31.1479C91.2311 31.1479 92.077 31.008 92.7899 30.7286C93.5027 30.4488 94.0931 30.0541 94.5616 29.544C95.0297 29.0336 95.3757 28.4117 95.5994 27.678C95.8228 26.9441 95.9349 26.1228 95.9349 25.2143V16.0519H93.5446Z" fill="black"/>
</svg>

<svg xmlns="http://www.w3.org/2000/svg" fill="none" width="108" height="32" viewBox="0 0 108 32"><mask id="a" width="33" height="27" x="0" y="0" maskUnits="userSpaceOnUse" style="mask-type:alpha"><path d="M0 0h32.84v26.46H0V0Z" fill="#fff" fill-rule="evenodd" clip-rule="evenodd"/></mask><g mask="url(#a)"><path d="M3.85 25.48A16.27 16.27 0 0 1 31.07 8.14l1.77-1.5a18.6 18.6 0 0 0-31.1 19.82l2.1-.98Z" fill="#000" fill-rule="evenodd" clip-rule="evenodd"/></g><path d="M18.6 29.64a11.04 11.04 0 1 1 8.46-18.14l1.78-1.5A13.37 13.37 0 1 0 18.6 31.97v-2.32Z" fill="#000" fill-rule="evenodd" clip-rule="evenodd"/><path d="M22.6 21.96a5.22 5.22 0 1 1 0-6.72l2-1.69a7.85 7.85 0 1 0-.38 10.5l-1.62-2.09Zm14.15-5.9h2.39v1.6h.04a3.35 3.35 0 0 1 3.12-1.9 3.33 3.33 0 0 1 2.84 1.26c.3.37.52.8.66 1.3s.21 1 .21 1.5v6.3h-2.5v-5.58c0-.3-.03-.6-.07-.92a2.5 2.5 0 0 0-.28-.87 1.81 1.81 0 0 0-.57-.64 1.7 1.7 0 0 0-.98-.25 2.15 2.15 0 0 0-1.77.85c-.2.26-.33.55-.43.87-.1.33-.15.67-.15 1v5.54h-2.51V16.05Zm10.33 2v-2h1.76v-2.92h2.48v2.91h2.5v2.01h-2.5v4.68c0 .45.08.82.24 1.11.16.3.52.44 1.08.44a3.1 3.1 0 0 0 1.07-.24l.08 1.97a5.63 5.63 0 0 1-1.68.27c-.67 0-1.21-.09-1.63-.28a2.48 2.48 0 0 1-1-.77c-.24-.33-.4-.7-.5-1.14-.1-.42-.14-.88-.14-1.37v-4.7h-1.76Zm8.26-2h2.42v1.67h.04c.28-.59.67-1.06 1.17-1.43a2.93 2.93 0 0 1 2.08-.53c.1 0 .2.02.3.05v2.3a3.53 3.53 0 0 0-.78-.1c-.58 0-1.04.1-1.4.32a2.51 2.51 0 0 0-1.2 1.65c-.07.31-.1.56-.1.74v5.39h-2.53V16.05Zm7.15 10.06h2.5V16.05h-2.52v10.07Zm-.35-13.49a1.55 1.55 0 0 1 1.6-1.5c.45 0 .84.14 1.15.42.32.3.48.65.48 1.08 0 .44-.16.8-.48 1.08-.31.3-.7.43-1.16.43a1.55 1.55 0 0 1-1.6-1.5Zm6.12 5.43h-1.9v-2h1.9v-.76c0-.6.07-1.18.2-1.73s.36-1.04.67-1.46c.31-.42.73-.75 1.25-1a4.56 4.56 0 0 1 1.95-.36 4.8 4.8 0 0 1 1.28.15l-.17 2.13a3.96 3.96 0 0 0-.97-.14c-.36 0-.65.07-.88.2-.22.15-.4.33-.5.55-.13.23-.2.47-.25.74a5.1 5.1 0 0 0-.06.77v.9h2.32v2.01h-2.32v8.06h-2.52v-8.06Zm15.37 8.06h-2.4V24.5h-.03c-.23.5-.61.95-1.17 1.33a3.3 3.3 0 0 1-1.96.58c-.65 0-1.22-.1-1.68-.32a3.32 3.32 0 0 1-1.16-.9 3.9 3.9 0 0 1-.66-1.3c-.14-.5-.2-1-.2-1.52v-6.3h2.5v5.59c0 .3.03.6.07.92.04.32.13.61.27.87s.34.47.58.64c.24.17.57.25.97.25a2.17 2.17 0 0 0 1.78-.86c.19-.25.33-.54.43-.87.1-.33.14-.66.14-1v-5.53h2.52v10.07Zm-55.28-7.8a2.83 2.83 0 0 1 1.92-.67c.4 0 .76.06 1.06.2a2.1 2.1 0 0 1 1.17 1.3c.1.3.14.6.14.93h-5.16c.06-.72.35-1.3.87-1.75Zm4.67 4.73a2.99 2.99 0 0 1-2.67 1.3 3.08 3.08 0 0 1-1.94-.7 2.53 2.53 0 0 1-.93-1.77h7.65l.03-.33v-.34c0-.9-.13-1.7-.37-2.38a4.77 4.77 0 0 0-1.02-1.7 4.2 4.2 0 0 0-1.54-1.03 5.65 5.65 0 0 0-4.05.04 5.02 5.02 0 0 0-2.8 2.8 5.6 5.6 0 0 0-.41 2.2c0 .83.13 1.57.4 2.22a4.68 4.68 0 0 0 2.85 2.68c.65.25 1.37.37 2.15.37 1.7 0 3.02-.54 4-1.6l-1.35-1.76Zm67.85-4.72a2.83 2.83 0 0 1 1.92-.68c.4 0 .75.06 1.05.2a2.11 2.11 0 0 1 1.18 1.3c.1.3.14.6.14.93H100c.05-.72.34-1.3.87-1.75Zm4.66 4.72a2.99 2.99 0 0 1-2.66 1.3 3.17 3.17 0 0 1-1.95-.7 2.51 2.51 0 0 1-.92-1.77h7.65l.02-.33v-.34a7 7 0 0 0-.37-2.38 4.76 4.76 0 0 0-1.01-1.7c-.44-.45-.95-.8-1.54-1.03a5.65 5.65 0 0 0-4.05.04 5.02 5.02 0 0 0-2.8 2.8 5.6 5.6 0 0 0-.42 2.2c0 .83.14 1.57.4 2.22a4.68 4.68 0 0 0 2.85 2.68c.66.25 1.38.37 2.16.37 1.7 0 3.02-.54 4-1.6l-1.36-1.76Zm-12.2-.84a2.88 2.88 0 0 1-4 1.7 2.76 2.76 0 0 1-.9-.72 3.35 3.35 0 0 1-.76-2.18c0-.45.07-.86.2-1.25.14-.4.32-.73.57-1.02a2.65 2.65 0 0 1 2.13-.93 2.78 2.78 0 0 1 2.17.94c.26.3.46.64.6 1.03a3.63 3.63 0 0 1 0 2.43Zm.2-6.16v1.51h-.03a3.36 3.36 0 0 0-1.46-1.36 4.84 4.84 0 0 0-5.6 1.11 5.02 5.02 0 0 0-.98 1.68 6.04 6.04 0 0 0 0 4.08c.25.63.58 1.2 1 1.66a4.65 4.65 0 0 0 3.63 1.55c.7 0 1.33-.13 1.9-.39a3.54 3.54 0 0 0 1.36-1.13h.04v.74c0 .5-.05.96-.16 1.38a2.46 2.46 0 0 1-1.5 1.82 3.9 3.9 0 0 1-1.53.27 5.02 5.02 0 0 1-3.48-1.4l-1.49 1.92a8.08 8.08 0 0 0 3.7 1.53c.46.06.9.1 1.3.1.97 0 1.82-.14 2.53-.42a4.64 4.64 0 0 0 2.81-3.04c.22-.74.33-1.56.33-2.47v-9.16h-2.39Z" fill="#000" fill-rule="evenodd" clip-rule="evenodd"/></svg>
